src/svgs/down-arrow.svg

<svg fill="none" height="15" viewBox="0 0 15 15" width="15" xmlns="http://www.w3.org/2000/svg" xmlns:xlink="http://www.w3.org/1999/xlink"><clipPath id="a"><path d="m0 0h15v15h-15z"/></clipPath><g clip-path="url(#a)"><path d="m14.9046 3.6823c-.1272-.12718-.3339-.12718-.4611 0l-6.94316 6.9438-6.94385-6.94313c-.127177-.12718-.333931-.12718-.4611075 0-.1271767.12718-.1271767.33393 0 .46111l7.1740775 7.17412c.06393.0632.14739.0952.23088.0952s.16695-.032.23023-.0959l7.17403-7.17407c.1272-.1272.1272-.33396 0-.46113z" fill="#ff8600"/></g></svg>

<svg width="15" height="15" viewBox="0 0 15 15" fill="none" xmlns="http://www.w3.org/2000/svg">
<g clip-path="url(#clip0)">
<path d="M14.9046 3.6823C14.7774 3.55512 14.5707 3.55512 14.4435 3.6823L7.50034 10.6261L0.55649 3.68297C0.429313 3.55579 0.222559 3.55579 0.0953825 3.68297C-0.0317942 3.81015 -0.0317942 4.0169 0.0953825 4.14408L7.26946 11.3182C7.33339 11.3814 7.41685 11.4134 7.50034 11.4134C7.58383 11.4134 7.66729 11.3814 7.73057 11.3175L14.9046 4.14343C15.0318 4.01623 15.0318 3.80947 14.9046 3.6823Z" fill="#FF8600"/>
</g>
<defs>
<clipPath id="clip0">
<rect width="15" height="15" fill="white"/>
</clipPath>
</defs>
</svg>
